Papirus/64x64/mimetypes/application-x.allegorithmic.substance.svg

<svg width="64" height="64" version="1.1" xmlns="http://www.w3.org/2000/svg">
 <path d="m14.5 8c-1.385 0-2.5 1.115-2.5 2.5v45c0 1.385 1.115 2.5 2.5 2.5h35c1.385 0 2.5-1.115 2.5-2.5v-32.5l-15-15z" style="opacity:.2"/>
 <path d="m14.5 7c-1.385 0-2.5 1.115-2.5 2.5v45c0 1.385 1.115 2.5 2.5 2.5h35c1.385 0 2.5-1.115 2.5-2.5v-32.5l-12-3-3-12z" style="fill:#53b848"/>
 <path d="m52 23-15-15v12.5c0 1.385 1.115 2.5 2.5 2.5z" style="opacity:.2"/>
 <path d="m52 22-15-15v12.5c0 1.385 1.115 2.5 2.5 2.5z" style="fill:#69d65d"/>
 <path d="m14.5 7c-1.385 0-2.5 1.115-2.5 2.5v1c0-1.385 1.115-2.5 2.5-2.5h22.5v-1z" style="fill:#ffffff;opacity:.2"/>
 <path d="m29 26.75-9 5.25v5.5l7 2.099609v-4.599609c0-0.199607 0.01458-0.394525 0.03711-0.587891l-0.623047-0.1875 0.748047-0.43164c0.33071-1.335711 1.197465-2.439894 2.357421-3.103516-0.327148-0.480675-0.519531-1.06168-0.519531-1.689453zm6 0v2.25c0 0.628222-0.193907 1.208579-0.521484 1.689453 1.149363 0.657767 2.010259 1.748166 2.347656 3.068359l2.173828 1.242188v1l5 1.5v-5.5zm2 10.650391v5.199218l0.585938 0.175782-0.591797 0.341797c-0.062582 2.714773-2.263789 4.882812-4.994141 4.882812-2.720432 0-4.914338-2.152595-4.992188-4.853516l-2.007812-1.146484v-1l-5-1.5v5.5l12 7 12-7v-5.5z" style="fill:#ffffff"/>
 <path d="m36.826172 33.757812c0.09033 0.353453 0.155073 0.716073 0.166016 1.095704l2.007812 1.146484v-1zm2.173828 2.242188v1l5 1.5v-1zm-11.837891-2.207031-0.748047 0.43164 0.623047 0.1875c0.02475-0.212434 0.07466-0.415839 0.125-0.61914zm-7.162109 3.707031v1l7 2.099609v-1zm17 5.099609v0.400391c0 0.03965-5e-3 0.07777-0.0059 0.117188l0.591797-0.341797zm-17 2.400391v1l12 7 12-7v-1l-12 7z" style="opacity:.1"/>
 <path d="m14.5 7c-1.385 0-2.5 1.115-2.5 2.5v1c0-1.385 1.115-2.5 2.5-2.5h22.5v-1z" style="fill:#ffffff;opacity:.2"/>
 <path d="m32 32c-2.210666 0-4 1.8-4 4v8c0 2.2 1.79 4 4 4s4-1.8 4-4v-8c0-2.2-1.789334-4-4-4zm0 2c1.104 0 2 0.8 2 2 0 0.999998-0.896 2-2 2s-2-1.000002-2-2c0-1.2 0.896-2 2-2zm0 6c1.10457 0 2 0.89543 2 2v2c0 1.10457-0.89543 2-2 2s-2-0.89543-2-2v-2c0-1.10457 0.89543-2 2-2z" style="opacity:.2"/>
 <path d="m30 7v22c0 1.1 0.895 2 2 2s2-0.9 2-2v-22z" style="opacity:.2"/>
 <path d="m31 12v1h1v-1zm1 1v1h1v-1zm0 1h-1v1h1zm0 1v1h1v-1zm0 1h-1v1h1zm0 1v1h1v-1zm0 1h-1v1h1zm0 1v1h1v-1zm0 1h-1v1h1zm0 1v1h1v-1z" style="opacity:.2"/>
 <path d="m31 13v1h1v-1zm0 2v1h1v-1zm0 2v1h1v-1zm0 2v1h1v-1zm0 2v1h1v-1z" style="fill:#dddddd"/>
 <path d="m31 23h1c0.04125-0.367529 0-1 0-1h-1zm1 0v1h1v-1zm0 1h-1v1h1zm0 1v1h1v-1zm0 1h-1v1h1zm0 1v1h1v-1zm0 1h-1v1h1zm0 1v1h1v-1zm0 1h-1c-0.04374 0.389771 0 1 0 1h1z" style="opacity:.2"/>
 <path d="m31 23v1h1v-1zm0 2v1h1v-1zm0 2v1h1v-1zm0 2v1h1v-1z" style="fill:#dddddd"/>
 <path d="m32 31c-2.210666 0-4 1.8-4 4v8c0 2.2 1.79 4 4 4s4-1.8 4-4v-8c0-2.2-1.789334-4-4-4zm0 2c1.104 0 2 0.8 2 2 0 0.999998-0.896 2-2 2s-2-1.000002-2-2c0-1.2 0.896-2 2-2zm0 6c1.10457 0 2 0.89543 2 2v2c0 1.10457-0.89543 2-2 2s-2-0.89543-2-2v-2c0-1.10457 0.89543-2 2-2z" style="fill:#dddddd"/>
 <path d="m31 7v1h1v-1zm0 2v1h1v-1zm0 2v1h1v-1z" style="fill:#dddddd"/>
 <path d="m32 7v1h1v-1zm0 1h-1v1h1zm0 1v1h1v-1zm0 1h-1v1h1zm0 1v1h1v-1z" style="opacity:.2"/>
</svg>

<svg xmlns="http://www.w3.org/2000/svg" width="64" height="64" version="1">
 <path style="opacity:0.2" d="M 14.5,8 C 13.115,8 12,9.115 12,10.5 V 55.5 C 12,56.885 13.115,58 14.5,58 H 49.5 C 50.885,58 52,56.885 52,55.5 V 23 L 38.25,21.75 37,8 Z"/>
 <path style="fill:#53b848" d="M 14.5,7 C 13.115,7 12,8.115 12,9.5 V 54.5 C 12,55.885 13.115,57 14.5,57 H 49.5 C 50.885,57 52,55.885 52,54.5 V 22 L 38.25,20.75 37,7 Z"/>
 <path style="opacity:0.2" d="M 37,8 V 20.5 C 37,21.881 38.119,23 39.5,23 H 52 Z"/>
 <path style="fill:#69d65d" d="M 37,7 V 19.5 C 37,20.881 38.119,22 39.5,22 H 52 Z"/>
 <path style="opacity:0.2;fill:#ffffff" d="M 14.5,7 C 13.115,7 12,8.115 12,9.5 V 10.5 C 12,9.115 13.115,8 14.5,8 H 37 V 7 Z"/>
 <path style="opacity:0.2" d="M 30,7 V 29 C 30,30.1 30.895,31 32,31 33.105,31 34,30.1 34,29 V 7 Z"/>
 <path style="opacity:0.2" d="M 32,32 C 29.789,32 28,33.8 28,36 V 44 C 28,46.2 29.79,48 32,48 34.21,48 36,46.2 36,44 V 36 C 36,33.8 34.211,32 32,32 Z M 32,34 C 33.104,34 34,34.8 34,36 34,37 33.104,38 32,38 30.896,38 30,37 30,36 30,34.8 30.896,34 32,34 Z M 32,40 C 33.105,40 34,40.895 34,42 V 44 C 34,45.105 33.105,46 32,46 30.895,46 30,45.105 30,44 V 42 C 30,40.895 30.895,40 32,40 Z"/>
 <path style="fill:#dddddd" d="M 32,31 C 29.789,31 28,32.8 28,35 V 43 C 28,45.2 29.79,47 32,47 34.21,47 36,45.2 36,43 V 35 C 36,32.8 34.211,31 32,31 Z M 32,33 C 33.104,33 34,33.8 34,35 34,36 33.104,37 32,37 30.896,37 30,36 30,35 30,33.8 30.896,33 32,33 Z M 32,39 C 33.105,39 34,39.895 34,41 V 43 C 34,44.105 33.105,45 32,45 30.895,45 30,44.105 30,43 V 41 C 30,39.895 30.895,39 32,39 Z"/>
 <path style="opacity:0.2" d="M 32,7 V 8 H 33 V 7 Z M 32,8 H 31 V 9 H 32 Z M 32,9 V 10 H 33 V 9 Z M 32,10 H 31 V 11 H 32 Z M 32,11 V 12 H 33 V 11 Z M 32,12 H 31 V 13 H 32 Z M 32,13 V 14 H 33 V 13 Z M 32,14 H 31 V 15 H 32 Z M 32,15 V 16 H 33 V 15 Z M 32,16 H 31 V 17 H 32 Z M 32,17 V 18 H 33 V 17 Z M 32,18 H 31 V 19 H 32 Z M 32,19 V 20 H 33 V 19 Z M 32,20 H 31 V 21 H 32 Z M 32,21 V 22 H 33 V 21 Z M 32,22 H 31 V 23 H 32 Z M 32,23 V 24 H 33 V 23 Z M 32,24 H 31 V 25 H 32 Z M 32,25 V 26 H 33 V 25 Z M 32,26 H 31 V 27 H 32 Z M 32,27 V 28 H 33 V 27 Z M 32,28 H 31 V 29 H 32 Z M 32,29 V 30 H 33 V 29 Z M 32,30 H 31 V 31 H 32 Z"/>
 <path style="fill:#dddddd" d="M 31,7 V 8 H 32 V 7 Z M 31,9 V 10 H 32 V 9 Z M 31,11 V 12 H 32 V 11 Z M 31,13 V 14 H 32 V 13 Z M 31,15 V 16 H 32 V 15 Z M 31,17 V 18 H 32 V 17 Z M 31,19 V 20 H 32 V 19 Z M 31,21 V 22 H 32 V 21 Z M 31,23 V 24 H 32 V 23 Z M 31,25 V 26 H 32 V 25 Z M 31,27 V 28 H 32 V 27 Z M 31,29 V 30 H 32 V 29 Z"/>
 <path style="opacity:0.2" d="M 29,28.75 20,34 V 39.5 L 27,41.6 V 36.4 L 26.414,36.225 27,35.887 V 35 C 27,33.69 27.791,32.543 29,31.814 Z M 35,28.75 V 31.814 C 36.209,32.543 37,33.69 37,35 V 35.857 L 39,37 V 38 L 44,39.5 V 34 Z M 37,39.4 V 44.6 L 37.586,44.775 37,45.113 V 46 C 37,48.216 34.77,50 32,50 29.23,50 27,48.216 27,46 V 45.143 L 25,44 V 43 L 20,41.5 V 47 L 32,54 44,47 V 41.5 Z"/>
 <path style="fill:#ffffff" d="M 29,27.75 20,33 V 38.5 L 27,40.6 V 35.4 L 26.414,35.225 27,34.887 V 34 C 27,32.69 27.791,31.543 29,30.814 Z M 35,27.75 V 30.814 C 36.209,31.543 37,32.69 37,34 V 34.857 L 39,36 V 37 L 44,38.5 V 33 Z M 37,38.4 V 43.6 L 37.586,43.775 37,44.113 V 45 C 37,47.216 34.77,49 32,49 29.23,49 27,47.216 27,45 V 44.143 L 25,43 V 42 L 20,40.5 V 46 L 32,53 44,46 V 40.5 Z"/>
</svg>
